X:18011
T:Rose Tree, The
R:Polka
C:Trad.
O:England
M:2/4
L:1/8
Q:1/4=100
K:D
f/e/|:"D"dB AF|A/B/A/F/ A2|d d/e/f/e/d/e/|"A7"fe ef/e/|
"D"dB AF|A/B/A/F/ A2|dc/d/ "A7"ed/e/|"D"fd d2:|
|:"D"fe fg|"D7"a2 gf|"G"eb ba|"A7"be ef/e/|
"D"dB AF|A>B AB|dc/d/ "A7"ed/e/|"D"fd d2:|

